X: 1415
T: An Trucailín Donn
R: jig
M: 6/8
K: Cmajor
|:~c3 BAG|AFA GEC|cdc BAG|(3 ABc A GAB|
cBA BAG|(3ABc A GEG|F2 G EDD|1 DCC CEG:|2 DCC C2D||
|:E2G FDD|ECC DCD|E2G FDD|DCC C2D|
E2 G FDD|EGA GEC|E2 G FDD|1 DCC C2D:|2 DCC C2G||

